X:0256
M:C|
L:1/8
Q:1/2=104
K:G
g(aTge) dedB|g(aTge) agab       |gage dega|gegd        B/B/B B2 |
gage    dedB|gage    f/e/f/g/ ab|gbeg dega|b/a/g/f/ gd B/B/B B2|]

